X:165
T:The Liverpool Judies (b)
M:3/4
L:1/4
Q:1/4=3D95
K:D
D|\
A,/A,/ D D|D C D|E F G|A2 A/G/|
F F F|G E C|D A, A,|A,2 A|
F F F|F A F|G E C|D2 A|
F A F|G E C|D A, B,|=3DC D C|
A,3|E F G|A2 A|
F A A|G E C|D F E|D2||
